resources/svg/regular/transfer.svg

<svg xmlns="http://www.w3.org/2000/svg" fill="currentColor" stroke="none" viewBox="0 0 24 24"><path d="M15 12L20 8 15 4 15 6.999 2 6.999 2 8.999 15 8.999zM22 15L9 15 9 12 4 16 9 20 9 17 22 17z"/></svg>

<svg xmlns="http://www.w3.org/2000/svg" fill="currentColor" stroke="none" viewBox="0 0 24 24"><path d="m15 12 5-4-5-4v2.999H2v2h13zm7 3H9v-3l-5 4 5 4v-3h13z"/></svg>
